public/avatar/shoe/155.svg

<svg xmlns:xlink="http://www.w3.org/1999/xlink" height="38.3" width="36.05" xmlns="http://www.w3.org/2000/svg"><use height="17.3" transform="translate(14.15 10.9)" width="18.9" xlink:href="#a"/><defs><g id="a" fill-rule="evenodd"><path d="m.95-3.95-2.6.05-2.7.8-1.05.65-.9.7-1.35 1.7q-1.6 2.15-1.6 4.2l.05 1.05.1.5-.2.35-.35 1.05.25 1q2.55 4.9 9.2 5.25l1.9-.2 3.5-1.2q3.15-1.6 4-3.95.2-.6-.15-.95l-.3-.3.05-.5.15-1V4.8l-.1-.5-.35-.95L7.45 1.3 5.7-1.15l-1.55-1.3Q2.7-3.75.95-3.95" transform="translate(9.65 3.95)"/><path d="m2.35 12.15 1.2-.3 2.05-.9.9-.6.65-.65L8.5 7.9l.05-1.1-.2-.45L8.2 6q-.5-.25-1.55.65l-1.45 1L3.3 8.8l-2.5.5H-.95l-.85-.05-1.55-.45-3.5-1.95Q-8.1 6-8.4 6.35q-.45.4-.05 1.05l.7 1.05 1.7 1.55 2.15 1.45 2 .7 2.75.2 1.5-.2" fill="#c92505" transform="translate(9.65 3.95)"/><path d="M-.45-2.9q-2.9-.15-5.4 2.35l-.45.5-1.15 1.45-.35.6-.4.95q-.75 1.85-.25 3.5l.35.8 1.75 1.85q2.3 2.3 6.05 2.3l3.5-.5 1.55-.55q1.7-.7 1.35-1.05l1.05-1q.3.3.8-1.65H8V6.6h-.05L8 5.05 7.65 3.6l-.7-1.4L6.1.6 5.2-.6Q3.65-2.4 1.65-2.8l-2.1-.1" fill="#ead8b9" transform="translate(9.65 3.95)"/><path d="m-.2-2.05-3.65.55Q-5.2-1-7.3 3.2q-.3.65.05 1.35 5.2 5 13.5.7.8-1.7-.7-4.4Q4.1-1.85-.2-2.05" fill="#020000" transform="translate(9.65 3.95)"/><path d="M6-.1Q4.45-3.9-.25-3.9T-6.7 0q-.85 1.9-.8 3.85l7.25.85 6.85-1Q6.75 1.8 6-.1" fill="#020000" transform="translate(9.65 3.95)"/><path d="M4.2 5.5Q5.85 4.7 6 3.9q.8-7.05-6.05-7.05-6.65 0-6.65 6.25 0 .8 1.6 1.95 1.95 1.4 4.6 1.4 2.7 0 4.7-.95" fill="#fff" transform="translate(9.65 3.95)"/><path d="M-2.6-2.9q-1.75.5-2.8 1.85Q-7.75 2-6.3 3.8q1.85 2.5 4 2.5-2.9-2.2-2.95-5.2Q-5.3-.75-3.2-2.15l2.15-1-1.55.25" fill="#ccc" transform="translate(9.65 3.95)"/><path d="m1.35 5.95-.2.45 1.2-.25.3-.1-.05-.65.25-.65.35-.8L1.85 4l-.65.05-.65.15.5.35.25.15.05.45v.8" fill="#9e9e9e" transform="translate(9.65 3.95)"/><path d="m4.05 3.8-.7.2-.6.35q-.5.5-.5 1.2-.05.55.05.65h.1l1-.4q-.35-.45-.15-1.15.15-.4.8-.85" fill="#ccc" transform="translate(9.65 3.95)"/><path d="m4.35 6.3-2 .55 1.05.4 1.65.25H6.5l.95.35.45-.75-.05.05V7.1q-.1-.15-.5-.15l-.85-.1-1.9-.5-.25-.05M.1 11.45l.35-.05 2.25-.35 1.3-.4-.35-.35-.5-.25L2 9.45l-1.05-.8-.5-.55q-.4-.45-1.05-.7l-.4-.2-.15-.05h-.25l-.25-.05-.5-.05.6.65.5 1 .3 1.2.25.35.1.35.3.5.2.35m6.7-2.8h.05l-1.5-.35-1-.1L5.7 9.5l.25.05.5-.4.45-.4-.1-.1m-12.55-2.9h.05l-.6-.45-.25.05v.4l.2.8.55 1 .85 1.7.1.8.65.4 1.05.45-.15-.2-.1-.3-.3-.55-.4-1.65-.05-.85q0-.25-.5-.75l-1.1-.85M-7.3 4.3l-.1-.8-1.05.15q-.4.85-.2 2.25l1.35-1.6m14.65-.95H6.7l-.05.15.05.25-.05.4.15.1h1.1l-.15-.6-.15-.25-.25-.05" fill="#753b07" transform="translate(9.65 3.95)"/></g></defs></svg>

<?xml version="1.0" encoding="UTF-8" standalone="no"?>
<svg xmlns:xlink="http://www.w3.org/1999/xlink" height="38.3px" width="36.05px" xmlns="http://www.w3.org/2000/svg">
  <g transform="matrix(1.0, 0.0, 0.0, 1.0, 23.8, 14.85)">
    <use height="17.3" transform="matrix(1.0, 0.0, 0.0, 1.0, -9.65, -3.95)" width="18.9" xlink:href="#shape0"/>
  </g>
  <defs>
    <g id="shape0" transform="matrix(1.0, 0.0, 0.0, 1.0, 9.65, 3.95)">
      <path d="M0.95 -3.95 L-1.65 -3.9 -4.35 -3.1 -5.4 -2.45 -6.3 -1.75 -7.65 -0.05 Q-9.25 2.1 -9.25 4.15 L-9.2 5.2 -9.1 5.7 -9.3 6.05 -9.65 7.1 -9.4 8.1 Q-6.85 13.0 -0.2 13.35 L1.7 13.15 5.2 11.95 Q8.35 10.35 9.2 8.0 9.4 7.4 9.05 7.05 L8.75 6.75 8.8 6.25 8.95 5.25 8.95 4.8 8.85 4.3 8.5 3.35 7.45 1.3 5.7 -1.15 4.15 -2.45 Q2.7 -3.75 0.95 -3.95" fill="#000000" fill-rule="evenodd" stroke="none"/>
      <path d="M2.35 12.15 L3.55 11.85 5.6 10.95 6.5 10.35 7.15 9.7 8.5 7.9 8.55 6.8 8.35 6.35 8.2 6.0 Q7.7 5.75 6.65 6.65 L5.2 7.65 3.3 8.8 0.8 9.3 -0.95 9.3 -1.8 9.25 -3.35 8.8 -6.85 6.85 Q-8.1 6.0 -8.4 6.35 -8.85 6.75 -8.45 7.4 L-7.75 8.45 -6.05 10.0 -3.9 11.45 -1.9 12.15 0.85 12.35 2.35 12.15" fill="#c92505" fill-rule="evenodd" stroke="none"/>
      <path d="M-0.45 -2.9 Q-3.35 -3.05 -5.85 -0.55 L-6.3 -0.05 -7.45 1.4 -7.8 2.0 -8.2 2.95 Q-8.95 4.8 -8.45 6.45 L-8.1 7.25 -6.35 9.1 Q-4.05 11.4 -0.3 11.4 L3.2 10.9 4.75 10.35 Q6.45 9.65 6.1 9.3 L7.15 8.3 Q7.45 8.6 7.95 6.65 L8.0 6.65 8.0 6.6 7.95 6.6 8.0 5.05 7.65 3.6 6.95 2.2 6.1 0.6 5.2 -0.6 Q3.65 -2.4 1.65 -2.8 L-0.45 -2.9" fill="#ead8b9" fill-rule="evenodd" stroke="none"/>
      <path d="M-0.2 -2.05 L-3.85 -1.5 Q-5.2 -1.0 -7.3 3.2 -7.6 3.85 -7.25 4.55 -2.05 9.55 6.25 5.25 7.05 3.55 5.55 0.85 4.1 -1.85 -0.2 -2.05" fill="#020000" fill-rule="evenodd" stroke="none"/>
      <path d="M6.0 -0.1 Q4.45 -3.9 -0.25 -3.9 -4.95 -3.9 -6.7 0.0 -7.55 1.9 -7.5 3.85 L-0.25 4.7 6.6 3.7 Q6.75 1.8 6.0 -0.1" fill="#020000" fill-rule="evenodd" stroke="none"/>
      <path d="M4.2 5.5 Q5.85 4.7 6.0 3.9 6.8 -3.15 -0.05 -3.15 -6.7 -3.15 -6.7 3.1 -6.7 3.9 -5.1 5.05 -3.15 6.45 -0.5 6.45 2.2 6.45 4.2 5.5" fill="#ffffff" fill-rule="evenodd" stroke="none"/>
      <path d="M-2.6 -2.9 Q-4.35 -2.4 -5.4 -1.05 -7.75 2.0 -6.3 3.8 -4.45 6.3 -2.3 6.3 -5.2 4.1 -5.25 1.1 -5.3 -0.75 -3.2 -2.15 L-1.05 -3.15 -2.6 -2.9" fill="#cccccc" fill-rule="evenodd" stroke="none"/>
      <path d="M1.35 5.95 L1.15 6.4 2.35 6.15 2.65 6.05 2.6 5.4 2.85 4.75 3.2 3.95 1.85 4.0 1.2 4.05 0.55 4.2 1.05 4.55 1.3 4.7 1.35 5.15 1.35 5.95" fill="#9e9e9e" fill-rule="evenodd" stroke="none"/>
      <path d="M4.05 3.8 L3.35 4.0 2.75 4.35 Q2.25 4.85 2.25 5.55 2.2 6.1 2.3 6.2 L2.4 6.2 3.4 5.8 Q3.05 5.35 3.25 4.65 3.4 4.25 4.05 3.8" fill="#cccccc" fill-rule="evenodd" stroke="none"/>
      <path d="M4.35 6.3 L2.35 6.85 3.4 7.25 5.05 7.5 6.5 7.5 7.45 7.85 7.9 7.1 7.85 7.15 7.85 7.1 Q7.75 6.95 7.35 6.95 L6.5 6.85 4.6 6.35 4.35 6.3" fill="#753b07" fill-rule="evenodd" stroke="none"/>
      <path d="M0.1 11.45 L0.45 11.4 2.7 11.05 4.0 10.65 3.65 10.3 3.15 10.05 2.0 9.45 0.95 8.65 0.45 8.1 Q0.05 7.65 -0.6 7.4 L-1.0 7.2 -1.15 7.15 -1.4 7.15 -1.65 7.1 -2.15 7.05 -1.55 7.7 -1.05 8.7 -0.75 9.9 -0.5 10.25 -0.4 10.6 -0.1 11.1 0.1 11.45" fill="#753b07" fill-rule="evenodd" stroke="none"/>
      <path d="M6.8 8.65 L6.85 8.65 5.35 8.3 4.35 8.2 5.7 9.5 5.95 9.55 6.45 9.15 6.9 8.75 6.8 8.65" fill="#753b07" fill-rule="evenodd" stroke="none"/>
      <path d="M-5.75 5.75 L-5.7 5.75 -6.3 5.3 -6.55 5.35 -6.55 5.75 -6.35 6.55 -5.8 7.55 -4.95 9.25 -4.85 10.05 -4.2 10.45 -3.15 10.9 -3.3 10.7 -3.4 10.4 -3.7 9.85 -4.1 8.2 -4.15 7.35 Q-4.15 7.1 -4.65 6.6 L-5.75 5.75" fill="#753b07" fill-rule="evenodd" stroke="none"/>
      <path d="M-7.3 4.3 L-7.4 3.5 -8.45 3.65 Q-8.85 4.5 -8.65 5.9 L-7.3 4.3" fill="#753b07" fill-rule="evenodd" stroke="none"/>
      <path d="M7.35 3.35 L6.7 3.35 6.65 3.5 6.7 3.75 6.65 4.15 6.8 4.25 7.9 4.25 7.75 3.65 7.6 3.4 7.35 3.35" fill="#753b07" fill-rule="evenodd" stroke="none"/>
    </g>
  </defs>
</svg>
